Yuhei04/robot_arm/outputs/tool0_line_trajectory_current.csv
step,t,target_x_mm,target_y_mm,target_z_mm,j1,j2,j3,j4,j5,j6,fk_x_mm,fk_y_mm,fk_z_mm,error_mm,max_joint_step_deg,status
0,0.0000,-0.840,-179.530,181.110,-0.260,20.390,-0.260,0.000,0.090,-0.000,-0.835,-179.531,181.112,0.005,0.000,OK
1,0.0233,0.323,-178.949,181.808,-0.230,20.366,-0.249,-0.000,0.086,-0.000,-0.740,-179.507,181.218,1.338,0.030,OK
2,0.0465,1.486,-178.367,182.505,0.151,20.109,-0.166,-0.000,0.063,-0.000,0.451,-179.217,182.255,1.362,0.380,OK
3,0.0698,2.648,-177.786,183.203,0.579,19.842,-0.138,-0.000,0.075,-0.000,1.786,-178.857,183.147,1.376,0.428,OK
4,0.0930,3.811,-177.204,183.901,0.997,19.566,-0.149,-0.001,0.113,-0.000,3.084,-178.443,183.935,1.437,0.418,OK
5,0.1163,4.974,-176.623,184.598,1.425,19.258,-0.195,-0.001,0.177,-0.000,4.405,-177.945,184.703,1.443,0.428,OK
6,0.1395,6.137,-176.042,185.296,1.835,18.937,-0.263,-0.002,0.255,-0.000,5.663,-177.403,185.434,1.448,0.410,OK
7,0.1628,7.300,-175.460,185.994,2.239,18.605,-0.345,-0.002,0.345,-0.000,6.894,-176.823,186.153,1.430,0.404,OK
8,0.1860,8.462,-174.879,186.691,2.619,18.288,-0.419,-0.003,0.428,-0.000,8.041,-176.261,186.847,1.454,0.379,OK
9,0.2093,9.625,-174.297,187.389,3.005,17.968,-0.493,-0.005,0.510,-0.000,9.201,-175.686,187.548,1.460,0.386,OK
10,0.2326,10.788,-173.716,188.087,3.394,17.649,-0.565,-0.006,0.592,-0.000,10.365,-175.100,188.249,1.456,0.390,OK
11,0.2558,11.951,-173.135,188.784,3.786,17.331,-0.635,-0.008,0.673,-0.000,11.529,-174.506,188.949,1.444,0.392,OK
12,0.2791,13.113,-172.553,189.482,4.181,17.015,-0.703,-0.010,0.752,-0.000,12.694,-173.907,189.647,1.427,0.395,OK
13,0.3023,14.276,-171.972,190.180,4.564,16.716,-0.759,-0.012,0.823,-0.000,13.816,-173.330,190.334,1.442,0.383,OK
14,0.3256,15.439,-171.390,190.877,4.958,16.415,-0.812,-0.015,0.891,-0.000,14.967,-172.740,191.032,1.438,0.394,OK
15,0.3488,16.602,-170.809,191.575,5.358,16.116,-0.862,-0.017,0.958,-0.000,16.126,-172.143,191.730,1.425,0.400,OK
16,0.3721,17.765,-170.228,192.273,5.745,15.832,-0.902,-0.020,1.016,-0.000,17.241,-171.569,192.414,1.447,0.387,OK
17,0.3953,18.927,-169.646,192.970,6.144,15.547,-0.939,-0.023,1.073,-0.000,18.386,-170.981,193.111,1.447,0.399,OK
18,0.4186,20.090,-169.065,193.668,6.550,15.264,-0.973,-0.026,1.128,-0.000,19.543,-170.385,193.808,1.436,0.405,OK
19,0.4419,21.253,-168.483,194.366,6.958,14.984,-1.004,-0.030,1.180,-0.000,20.702,-169.782,194.505,1.418,0.409,OK
20,0.4651,22.416,-167.902,195.063,7.351,14.720,-1.025,-0.033,1.225,-0.000,21.809,-169.207,195.184,1.444,0.392,OK
21,0.4884,23.579,-167.321,195.761,7.757,14.455,-1.042,-0.037,1.268,-0.000,22.949,-168.616,195.879,1.445,0.406,OK
22,0.5116,24.741,-166.739,196.459,8.169,14.192,-1.056,-0.041,1.308,-0.000,24.100,-168.016,196.574,1.433,0.413,OK
23,0.5349,25.904,-166.158,197.157,8.586,13.932,-1.068,-0.045,1.346,-0.000,25.257,-167.411,197.270,1.415,0.416,OK
24,0.5581,27.067,-165.577,197.854,9.005,13.675,-1.075,-0.049,1.382,-0.000,26.414,-166.801,197.963,1.392,0.419,OK
25,0.5814,28.230,-164.995,198.552,9.404,13.436,-1.074,-0.054,1.410,-0.000,27.510,-166.222,198.636,1.425,0.399,OK
26,0.6047,29.393,-164.414,199.250,9.817,13.195,-1.068,-0.058,1.435,-0.000,28.641,-165.626,199.327,1.429,0.413,OK
27,0.6279,30.555,-163.832,199.947,10.238,12.957,-1.059,-0.063,1.458,-0.000,29.787,-165.022,200.019,1.418,0.421,OK
28,0.6512,31.718,-163.251,200.645,10.663,12.723,-1.046,-0.067,1.478,-0.000,30.938,-164.413,200.712,1.401,0.425,OK
29,0.6744,32.881,-162.670,201.343,11.091,12.493,-1.029,-0.072,1.496,-0.000,32.091,-163.799,201.403,1.379,0.428,OK
30,0.6977,34.044,-162.088,202.040,11.521,12.267,-1.009,-0.077,1.510,-0.000,33.244,-163.182,202.093,1.356,0.430,OK
31,0.7209,35.207,-161.507,202.738,11.927,12.058,-0.982,-0.082,1.518,-0.000,34.327,-162.600,202.757,1.403,0.406,OK
32,0.7442,36.369,-160.925,203.436,12.348,11.849,-0.949,-0.087,1.523,-0.000,35.447,-162.000,203.442,1.416,0.421,OK
33,0.7674,37.532,-160.344,204.133,12.777,11.642,-0.911,-0.092,1.524,-0.000,36.583,-161.390,204.130,1.413,0.429,OK
34,0.7907,38.695,-159.763,204.831,13.212,11.440,-0.870,-0.097,1.523,-0.000,37.727,-160.776,204.818,1.401,0.434,OK
35,0.8140,39.858,-159.181,205.529,13.649,11.242,-0.826,-0.102,1.519,-0.000,38.874,-160.157,205.506,1.386,0.437,OK
36,0.8372,41.020,-158.600,206.226,14.089,11.049,-0.777,-0.107,1.511,-0.000,40.022,-159.536,206.192,1.369,0.440,OK
37,0.8605,42.183,-158.018,206.924,14.530,10.861,-0.723,-0.112,1.501,-0.000,41.170,-158.912,206.877,1.352,0.441,OK
38,0.8837,43.346,-157.437,207.622,14.973,10.679,-0.666,-0.117,1.487,-0.000,42.317,-158.287,207.561,1.336,0.443,OK
39,0.9070,44.509,-156.856,208.319,15.418,10.502,-0.603,-0.122,1.469,-0.000,43.463,-157.661,208.244,1.322,0.445,OK
40,0.9302,45.672,-156.274,209.017,15.864,10.331,-0.537,-0.127,1.448,-0.000,44.609,-157.034,208.926,1.309,0.446,OK
41,0.9535,46.834,-155.693,209.715,16.280,10.174,-0.467,-0.132,1.423,-0.000,45.672,-156.446,209.576,1.392,0.416,OK
42,0.9767,47.997,-155.111,210.412,16.745,10.009,-0.388,-0.137,1.393,-0.000,46.858,-155.796,210.282,1.336,0.465,OK
43,1.0000,49.160,-154.530,211.110,17.203,9.854,-0.306,-0.142,1.360,-0.000,48.022,-155.158,210.967,1.308,0.458,OK
